!!!!SEGMENT: pl-sa--568-a-ix-48--001_anonim--keyboard-piece.krn
!!!cenid: 18xx:598
!!!COM: Anonim
!!!COM-rismID:
!!!CDT:
!!!CNT:
!!!OTL: [Keyboard piece]
!!!PDT:
!!!AGN: Secular
!!!SMS-siglum: PL-SA
!!!SMS-shelfmark: 568/A IX 48
!!!SMS-shelfwork: 001 W
!!!SMS-variant:
!!!SMS-altvar:
!!!NIFC-rismSourceID: 1001065486
!!!NIFC-islandoraID:
!!!URL-pdf-islandora:
!!!URL-scan: https://bc.bdsandomierz.pl/dlibra/publication/1327/edition/1295/content @EN{Scan on Cyfrowa Biblioteka Diecezjalna w Sandomierzu} @PL{Skany w portalu Cyfrowa Biblioteka Diecezjalna w Sandomierzu}
!!!ONB-nifc: Str. 1
!!!AIN: 1 empty
!!!key:
**kern
*Iempty
*I"
*I'keyb
*clefG2
*k[]
*C:
*M2/4
=1
4cc\
16cc\LL
16ee\
16dd\
16ff\JJ
=2
16ff\LL
16ee\
16aa\
16gg\JJ
4gg\
=3
16gg\LL
16ff\
16ee\
16dd\JJ
16cc\LL
16b\
16a\
16g\JJ
=4
16.cc\LL
32ee\K
16.dd\
32ff\JJk
16.ee\LL
32gg\K
16.ff\
32aa\JJk
=5
8.gg\L
!LO:N:vis=16
32aa\LL
!LO:N:vis=16
32bb\JJJ
16ccc\LL
16gg\
16ee\
16cc\JJ
!!LO:LB:g=original
=6
4gg\
8g/L
8g/J
=7!|:
8.b\L 8.dd
16cc\Jk 16ee
16ff\LL
16ee\
16ff\
16dd\JJ
=8
32ee\LLL
32ff\
32gg\
32aa\JJJ
16gg\LL
16gg\JJ
16gg\LL
16aa\
!LO:TX:a:t=f
16ff\
16ee\JJ
=9
8.b\L 8.dd
16cc\Jk 16ee
16ff\LL
16ee\
16ff\
16dd\JJ
=10
32ee\LLL
32ff\
32gg\
32aa\JJJ
!LO:N:vis=16
8.gg\
16gg\LL
16ff\
16ee\JJ
!!LO:LB:g=original
=11:|!
16aa\LL
16ccc\
16gg\
16gg\JJ
16ff\LL
16aa\
16dd\
16dd\JJ
=12
16ee\LL
16cc\JJ
8qqgg/
16ff\LL
32ee\L
32dd\JJJ
8cc\L 8ee
8b\J 8dd
=13-
4cc;>\
4ryy
==
*-
!!!RDF**kern: > = above
!!!RDF**kern: < = below
!!!EED: Mateusz Mrugas
!!!EEV: 2020-12-10
!!!ENC: Anastazja Marusiak
!!!END: 2020-06-19
